web-off.svg

<svg fill="currentColor" viewBox="0 0 24 24"><path d="M9.4 4.44c-.21.39-.4.79-.56 1.2l1.53 1.53c.41-1.12.96-2.17 1.63-3.14.83 1.2 1.5 2.54 1.91 3.97H11.2l2 2h1.14c.06.41.1.84.13 1.27l1.97 1.97c.03-.41.06-.82.06-1.24 0-.68-.06-1.34-.14-2h3.38c.16.64.26 1.31.26 2s-.1 1.36-.26 2H17.2l3.3 3.28c.94-1.53 1.5-3.34 1.5-5.28 0-5.5-4.5-10-10-10-1.94 0-3.75.56-5.28 1.5L8.18 5c.39-.23.82-.42 1.22-.56M18.92 8h-2.95a15.7 15.7 0 0 0-1.38-3.56c1.84.63 3.37 1.9 4.33 3.56M2.39 1.73 1.11 3l2.95 2.95A9.9 9.9 0 0 0 2 12c0 5.5 4.5 10 10 10 2.28 0 4.37-.77 6.06-2.05l2.78 2.78 1.27-1.27zM5.5 7.37l.61.63H5.08c.12-.22.26-.42.42-.63M4.26 14C4.1 13.36 4 12.69 4 12s.1-1.36.26-2h3.38c-.08.66-.14 1.32-.14 2s.06 1.34.14 2zm.82 2H8c.35 1.25.8 2.45 1.4 3.56A8 8 0 0 1 5.08 16m4.42-4c0-.2 0-.39.03-.58L12.11 14H9.66c-.1-.66-.16-1.32-.16-2m2.5 7.96c-.83-1.2-1.5-2.53-1.91-3.96h3.82c-.41 1.43-1.08 2.76-1.91 3.96m2.59-.4c.37-.68.67-1.41.91-2.15l1.12 1.09c-.62.45-1.3.81-2.03 1.06"/></svg>

<svg  viewBox="0 0 24 24" fill="currentColor"><path  d="M9.4 4.44C9.19 4.83 9 5.23 8.84 5.64L10.37 7.17C10.78 6.05 11.33 5 12 4.03C12.83 5.23 13.5 6.57 13.91 8H11.2L13.2 10H14.34C14.4 10.41 14.44 10.84 14.47 11.27L16.44 13.24C16.47 12.83 16.5 12.42 16.5 12C16.5 11.32 16.44 10.66 16.36 10H19.74C19.9 10.64 20 11.31 20 12S19.9 13.36 19.74 14H17.2L20.5 17.28C21.44 15.75 22 13.94 22 12C22 6.5 17.5 2 12 2C10.06 2 8.25 2.56 6.72 3.5L8.18 5C8.57 4.77 9 4.58 9.4 4.44M18.92 8H15.97C15.65 6.75 15.19 5.55 14.59 4.44C16.43 5.07 17.96 6.34 18.92 8M2.39 1.73L1.11 3L4.06 5.95C2.77 7.63 2 9.73 2 12C2 17.5 6.5 22 12 22C14.28 22 16.37 21.23 18.06 19.95L20.84 22.73L22.11 21.46L2.39 1.73M5.5 7.37L6.11 8H5.08C5.2 7.78 5.34 7.58 5.5 7.37M4.26 14C4.1 13.36 4 12.69 4 12S4.1 10.64 4.26 10H7.64C7.56 10.66 7.5 11.32 7.5 12S7.56 13.34 7.64 14H4.26M5.08 16H8C8.35 17.25 8.8 18.45 9.4 19.56C7.57 18.93 6.03 17.65 5.08 16M9.5 12C9.5 11.8 9.5 11.61 9.53 11.42L12.11 14H9.66C9.56 13.34 9.5 12.68 9.5 12M12 19.96C11.17 18.76 10.5 17.43 10.09 16H13.91C13.5 17.43 12.83 18.76 12 19.96M14.59 19.56C14.96 18.88 15.26 18.15 15.5 17.41L16.62 18.5C16 18.95 15.32 19.31 14.59 19.56Z"/></svg>
